X:2
T:Denis Murphy's Polka
R:polka
C:Syracuse session setting
L:1/8
M:2/4
K:D
&quot;D&quot;f/g/f/e/ d3/2B/|AD FA|&quot;G&quot;GE e3/2d/|&quot;A&quot;cB BA|
&quot;D&quot;f/g/f/e/ d3/2B/|AD FA|&quot;G&quot;GE &quot;Em&quot;e3/2f/|&quot;D&quot;ed d3/2:|
B/|&quot;D&quot;Af f/e/f|&quot;G&quot;Ag g/f/g|&quot;D&quot;Af f/e/f|&quot;Em&quot;e/f/e/d/ &quot;A&quot;BA|
&quot;D&quot;Af f/e/f|&quot;G&quot;Ag g3/2a/|&quot;A&quot;ba gc|ed &quot;D&quot;d3/2:|
</abc>
